austria/municipalities/70412.svg

<?xml version="1.0" encoding="UTF-8"?>
<!DOCTYPE svg PUBLIC "-//W3C//DTD SVG 1.1//EN" "http://www.w3.org/Graphics/SVG/1.1/DTD/svg11.dtd">
<svg xmlns="http://www.w3.org/2000/svg" version="1.1" width="166px" height="192px" style="shape-rendering:geometricPrecision; text-rendering:geometricPrecision; image-rendering:optimizeQuality; fill-rule:evenodd; clip-rule:evenodd" xmlns:xlink="http://www.w3.org/1999/xlink">
<g><path style="opacity:1" fill="#120c0b" d="M -0.5,-0.5 C 54.8333,-0.5 110.167,-0.5 165.5,-0.5C 165.5,39.8333 165.5,80.1667 165.5,120.5C 156.716,159.618 132.716,183.285 93.5,191.5C 86.1667,191.5 78.8333,191.5 71.5,191.5C 30.4674,182.802 6.46741,157.802 -0.5,116.5C -0.5,77.5 -0.5,38.5 -0.5,-0.5 Z"/></g>
<g><path style="opacity:1" fill="#fdfdfd" d="M 81.5,3.5 C 81.832,47.0032 81.4987,90.3365 80.5,133.5C 67.7376,124.904 57.571,113.904 50,100.5C 46.245,91.1574 44.5784,81.4907 45,71.5C 54.0647,76.4197 62.0647,75.0863 69,67.5C 72.6626,59.4627 71.996,51.796 67,44.5C 61.1847,39.2618 55.1847,34.2618 49,29.5C 46.9702,26.7737 45.4702,23.7737 44.5,20.5C 42.4164,24.3359 40.083,28.0026 37.5,31.5C 32.3431,35.5785 27.0098,39.4118 21.5,43C 12.4119,52.8327 12.4119,62.4993 21.5,72C 27.2515,75.377 32.9181,75.2103 38.5,71.5C 38.3669,83.8387 41.0336,95.5054 46.5,106.5C 46.3333,106.833 46.1667,107.167 46,107.5C 39.3302,102.063 31.8302,99.3963 23.5,99.5C 28.6785,104.179 33.6785,109.012 38.5,114C 44.1764,116.92 50.1764,118.92 56.5,120C 63.5,126.333 70.5,132.667 77.5,139C 69.2685,146.132 63.2685,154.799 59.5,165C 62.9582,166.415 66.6249,166.915 70.5,166.5C 71.6171,157.264 75.6171,149.597 82.5,143.5C 82.5,158.167 82.5,172.833 82.5,187.5C 43.3839,185.522 17.8839,165.855 6,128.5C 5.08815,124.205 4.42148,119.872 4,115.5C 3.50001,78.1682 3.33335,40.8348 3.5,3.5C 29.5,3.5 55.5,3.5 81.5,3.5 Z"/></g>
<g><path style="opacity:1" fill="#908c89" d="M 81.5,3.5 C 81.8333,3.5 82.1667,3.5 82.5,3.5C 82.8333,47.1718 82.4999,90.8384 81.5,134.5C 80.8933,134.376 80.56,134.043 80.5,133.5C 81.4987,90.3365 81.832,47.0032 81.5,3.5 Z"/></g>
<g><path style="opacity:1" fill="#d63023" d="M 83.5,3.5 C 109.5,3.5 135.5,3.5 161.5,3.5C 161.667,41.8348 161.5,80.1681 161,118.5C 154.288,156.878 131.788,179.712 93.5,187C 90.1832,187.498 86.8499,187.665 83.5,187.5C 83.1707,172.99 83.5041,158.657 84.5,144.5C 90.1424,150.617 93.8091,157.784 95.5,166C 99.0332,166.903 102.367,166.57 105.5,165C 101.732,154.799 95.7315,146.132 87.5,139C 94.5,132.667 101.5,126.333 108.5,120C 116.206,118.998 123.206,116.332 129.5,112C 132.981,107.352 136.981,103.185 141.5,99.5C 133.288,99.6296 125.788,102.296 119,107.5C 123.842,96.118 126.509,84.118 127,71.5C 140.186,76.9885 148.019,72.6552 150.5,58.5C 150.07,53.3026 148.236,48.636 145,44.5C 141.054,40.5554 136.554,37.3887 131.5,35C 126.422,31.2632 122.922,26.4299 121,20.5C 119.673,23.1315 118.34,25.7981 117,28.5C 111.185,33.7382 105.185,38.7382 99,43.5C 91.5791,52.8545 91.7457,62.0212 99.5,71C 106.25,75.4552 113.083,75.6219 120,71.5C 121.097,87.2088 116.763,101.209 107,113.5C 99.9324,121.238 92.2657,128.238 84,134.5C 83.5,90.8346 83.3333,47.1679 83.5,3.5 Z"/></g>
<g><path style="opacity:1" fill="#fdfdfd" d="M -0.5,116.5 C 6.46741,157.802 30.4674,182.802 71.5,191.5C 47.5,191.5 23.5,191.5 -0.5,191.5C -0.5,166.5 -0.5,141.5 -0.5,116.5 Z"/></g>
<g><path style="opacity:1" fill="#fdfdfd" d="M 165.5,120.5 C 165.5,144.167 165.5,167.833 165.5,191.5C 141.5,191.5 117.5,191.5 93.5,191.5C 132.716,183.285 156.716,159.618 165.5,120.5 Z"/></g>
<g><path style="opacity:1" fill="#1d1513" d="M 82.5,3.5 C 82.8333,3.5 83.1667,3.5 83.5,3.5C 83.3333,47.1679 83.5,90.8346 84,134.5C 92.2657,128.238 99.9324,121.238 107,113.5C 116.763,101.209 121.097,87.2088 120,71.5C 113.083,75.6219 106.25,75.4552 99.5,71C 91.7457,62.0212 91.5791,52.8545 99,43.5C 105.185,38.7382 111.185,33.7382 117,28.5C 118.34,25.7981 119.673,23.1315 121,20.5C 122.922,26.4299 126.422,31.2632 131.5,35C 136.554,37.3887 141.054,40.5554 145,44.5C 148.236,48.636 150.07,53.3026 150.5,58.5C 148.019,72.6552 140.186,76.9885 127,71.5C 126.509,84.118 123.842,96.118 119,107.5C 125.788,102.296 133.288,99.6296 141.5,99.5C 136.981,103.185 132.981,107.352 129.5,112C 123.206,116.332 116.206,118.998 108.5,120C 101.5,126.333 94.5,132.667 87.5,139C 95.7315,146.132 101.732,154.799 105.5,165C 102.367,166.57 99.0332,166.903 95.5,166C 93.8091,157.784 90.1424,150.617 84.5,144.5C 84.1583,143.662 83.4916,143.328 82.5,143.5C 75.6171,149.597 71.6171,157.264 70.5,166.5C 66.6249,166.915 62.9582,166.415 59.5,165C 63.2685,154.799 69.2685,146.132 77.5,139C 70.5,132.667 63.5,126.333 56.5,120C 50.1764,118.92 44.1764,116.92 38.5,114C 33.6785,109.012 28.6785,104.179 23.5,99.5C 31.8302,99.3963 39.3302,102.063 46,107.5C 46.1667,107.167 46.3333,106.833 46.5,106.5C 41.0336,95.5054 38.3669,83.8387 38.5,71.5C 32.9181,75.2103 27.2515,75.377 21.5,72C 12.4119,62.4993 12.4119,52.8327 21.5,43C 27.0098,39.4118 32.3431,35.5785 37.5,31.5C 40.083,28.0026 42.4164,24.3359 44.5,20.5C 45.4702,23.7737 46.9702,26.7737 49,29.5C 55.1847,34.2618 61.1847,39.2618 67,44.5C 71.996,51.796 72.6626,59.4627 69,67.5C 62.0647,75.0863 54.0647,76.4197 45,71.5C 44.5784,81.4907 46.245,91.1574 50,100.5C 57.571,113.904 67.7376,124.904 80.5,133.5C 80.56,134.043 80.8933,134.376 81.5,134.5C 82.4999,90.8384 82.8333,47.1718 82.5,3.5 Z"/></g>
<g><path style="opacity:1" fill="#ce3023" d="M 80.5,138.5 C 81.5983,139.601 81.765,140.934 81,142.5C 74.7927,148.242 70.626,155.242 68.5,163.5C 66.604,164.466 64.604,164.799 62.5,164.5C 65.7702,153.904 71.7702,145.238 80.5,138.5 Z"/></g>
<g><path style="opacity:1" fill="#fbfbfb" d="M 120.5,24.5 C 124.373,32.2021 130.373,37.7021 138.5,41C 148.338,47.8387 150.838,56.6721 146,67.5C 139.48,73.7512 132.646,74.0846 125.5,68.5C 125.356,81.0259 122.856,93.0259 118,104.5C 115.287,108.092 112.453,111.592 109.5,115C 116.155,110.826 123.155,106.826 130.5,103C 135.674,100.479 136.507,101.312 133,105.5C 130.5,108 128,110.5 125.5,113C 119.608,115.307 113.608,117.307 107.5,119C 99.7602,125.951 91.9269,132.785 84,139.5C 83.3333,138.5 83.3333,137.5 84,136.5C 92.9336,129.57 101.267,121.903 109,113.5C 119.241,100.207 123.407,85.2065 121.5,68.5C 112.969,74.3831 105.136,73.7164 98,66.5C 94.4826,59.6637 94.816,52.9971 99,46.5C 104.446,40.7852 110.446,35.7852 117,31.5C 118.705,29.4234 119.872,27.09 120.5,24.5 Z"/></g>
<g><path style="opacity:1" fill="#d43023" d="M 43.5,24.5 C 46.2216,28.7315 49.5549,32.5649 53.5,36C 67.8119,42.4441 72.3119,52.9441 67,67.5C 59.6292,73.8022 51.9625,74.1355 44,68.5C 41.7654,85.5464 46.0988,100.88 57,114.5C 64.0676,122.238 71.7343,129.238 80,135.5C 80.6877,136.332 80.521,136.998 79.5,137.5C 71.462,131.475 63.7954,124.975 56.5,118C 44.7591,117.253 35.7591,111.92 29.5,102C 38.5647,104.202 46.5647,108.535 53.5,115C 54.3317,115.688 54.9984,115.521 55.5,114.5C 48.1065,107.381 43.6065,98.7143 42,88.5C 41.113,81.8558 40.4463,75.1892 40,68.5C 30.3991,75.0994 22.7324,73.4328 17,63.5C 15.5194,54.6279 18.3527,47.4612 25.5,42C 29.1667,39.6667 32.8333,37.3333 36.5,35C 39.7224,32.0444 42.0558,28.5444 43.5,24.5 Z"/></g>
<g><path style="opacity:1" fill="#f3f2f2" d="M 84.5,140.5 C 88.302,141.779 91.4687,144.112 94,147.5C 97.5987,152.762 100.765,158.262 103.5,164C 101.098,164.814 98.7649,164.647 96.5,163.5C 93.7843,155.065 89.7843,147.398 84.5,140.5 Z"/></g>
<g><path style="opacity:1" fill="#391711" d="M 82.5,143.5 C 83.4916,143.328 84.1583,143.662 84.5,144.5C 83.5041,158.657 83.1707,172.99 83.5,187.5C 83.1667,187.5 82.8333,187.5 82.5,187.5C 82.5,172.833 82.5,158.167 82.5,143.5 Z"/></g>
</svg>

<svg xmlns="http://www.w3.org/2000/svg" width="166" height="192" style="shape-rendering:geometricPrecision;text-rendering:geometricPrecision;image-rendering:optimizeQuality;fill-rule:evenodd;clip-rule:evenodd"><path style="opacity:1" fill="#120c0b" d="M-.5-.5h166v121c-8.784 39.118-32.784 62.785-72 71h-22c-41.033-8.698-65.033-33.698-72-75V-.5z"/><path style="opacity:1" fill="#fdfdfd" d="M81.5 3.5c.332 43.503-.001 86.837-1 130-12.762-8.596-22.929-19.596-30.5-33-3.755-9.343-5.422-19.01-5-29 9.065 4.92 17.065 3.586 24-4 3.663-8.037 2.996-15.704-2-23a303.865 303.865 0 0 0-18-15 28.525 28.525 0 0 1-4.5-9 94.079 94.079 0 0 1-7 11 214.345 214.345 0 0 1-16 11.5c-9.088 9.833-9.088 19.5 0 29 5.752 3.377 11.418 3.21 17-.5-.133 12.339 2.534 24.005 8 35l-.5 1c-6.67-5.437-14.17-8.104-22.5-8a308.585 308.585 0 0 1 15 14.5 61.896 61.896 0 0 0 18 6l21 19c-8.231 7.132-14.231 15.799-18 26 3.458 1.415 7.125 1.915 11 1.5 1.117-9.236 5.117-16.903 12-23v44c-39.116-1.978-64.616-21.645-76.5-59a116.268 116.268 0 0 1-2-13c-.5-37.332-.667-74.665-.5-112h78z"/><path style="opacity:1" fill="#908c89" d="M81.5 3.5h1c.333 43.672 0 87.338-1 131-.607-.124-.94-.457-1-1a4225.674 4225.674 0 0 0 1-130z"/><path style="opacity:1" fill="#d63023" d="M83.5 3.5h78c.167 38.335 0 76.668-.5 115-6.712 38.378-29.212 61.212-67.5 68.5-3.317.498-6.65.665-10 .5-.33-14.51.004-28.843 1-43 5.642 6.117 9.31 13.284 11 21.5 3.533.903 6.867.57 10-1-3.768-10.201-9.769-18.868-18-26l21-19c7.706-1.002 14.706-3.668 21-8a70.96 70.96 0 0 1 12-12.5c-8.212.13-15.712 2.796-22.5 8 4.842-11.382 7.509-23.382 8-36 13.186 5.489 21.019 1.155 23.5-13-.43-5.197-2.264-9.864-5.5-14a47.913 47.913 0 0 0-13.5-9.5c-5.078-3.737-8.578-8.57-10.5-14.5-1.327 2.631-2.66 5.298-4 8a303.672 303.672 0 0 1-18 15c-7.42 9.355-7.254 18.521.5 27.5 6.75 4.455 13.583 4.622 20.5.5 1.097 15.709-3.237 29.709-13 42a170.723 170.723 0 0 1-23 21 8580.26 8580.26 0 0 1-.5-131z"/><path style="opacity:1" fill="#fdfdfd" d="M-.5 116.5c6.967 41.302 30.967 66.302 72 75h-72v-75zM165.5 120.5v71h-72c39.216-8.215 63.216-31.882 72-71z"/><path style="opacity:1" fill="#1d1513" d="M82.5 3.5h1c-.167 43.668 0 87.335.5 131a170.723 170.723 0 0 0 23-21c9.763-12.291 14.097-26.291 13-42-6.917 4.122-13.75 3.955-20.5-.5-7.754-8.979-7.92-18.145-.5-27.5a303.672 303.672 0 0 0 18-15c1.34-2.702 2.673-5.369 4-8 1.922 5.93 5.422 10.763 10.5 14.5a47.913 47.913 0 0 1 13.5 9.5c3.236 4.136 5.07 8.803 5.5 14-2.481 14.155-10.314 18.489-23.5 13-.491 12.618-3.158 24.618-8 36 6.788-5.204 14.288-7.87 22.5-8a70.96 70.96 0 0 0-12 12.5c-6.294 4.332-13.294 6.998-21 8l-21 19c8.231 7.132 14.232 15.799 18 26-3.133 1.57-6.467 1.903-10 1-1.69-8.216-5.358-15.383-11-21.5-.342-.838-1.008-1.172-2-1-6.883 6.097-10.883 13.764-12 23-3.875.415-7.542-.085-11-1.5 3.769-10.201 9.769-18.868 18-26l-21-19a61.896 61.896 0 0 1-18-6 308.585 308.585 0 0 0-15-14.5c8.33-.104 15.83 2.563 22.5 8l.5-1c-5.466-10.995-8.133-22.661-8-35-5.582 3.71-11.248 3.877-17 .5-9.088-9.5-9.088-19.167 0-29a214.345 214.345 0 0 0 16-11.5 94.079 94.079 0 0 0 7-11 28.525 28.525 0 0 0 4.5 9 303.865 303.865 0 0 1 18 15c4.996 7.296 5.663 14.963 2 23-6.935 7.586-14.935 8.92-24 4-.422 9.99 1.245 19.657 5 29 7.571 13.404 17.738 24.404 30.5 33 .06.543.393.876 1 1 1-43.662 1.333-87.328 1-131z"/><path style="opacity:1" fill="#ce3023" d="M80.5 138.5c1.098 1.101 1.265 2.434.5 4-6.207 5.742-10.374 12.742-12.5 21a9.86 9.86 0 0 1-6 1c3.27-10.596 9.27-19.262 18-26z"/><path style="opacity:1" fill="#fbfbfb" d="M120.5 24.5c3.873 7.702 9.873 13.202 18 16.5 9.838 6.839 12.338 15.672 7.5 26.5-6.52 6.251-13.354 6.585-20.5 1-.144 12.526-2.644 24.526-7.5 36a201.284 201.284 0 0 1-8.5 10.5 302.635 302.635 0 0 1 21-12c5.174-2.521 6.007-1.688 2.5 2.5l-7.5 7.5a184.511 184.511 0 0 1-18 6A1077.61 1077.61 0 0 1 84 139.5c-.667-1-.667-2 0-3a203.141 203.141 0 0 0 25-23c10.241-13.293 14.407-28.293 12.5-45-8.531 5.883-16.364 5.216-23.5-2-3.517-6.836-3.184-13.503 1-20a101.58 101.58 0 0 1 18-15 17.339 17.339 0 0 0 3.5-7z"/><path style="opacity:1" fill="#d43023" d="M43.5 24.5c2.722 4.232 6.055 8.065 10 11.5C67.812 42.444 72.312 52.944 67 67.5c-7.37 6.302-15.038 6.635-23 1-2.235 17.046 2.099 32.38 13 46a170.723 170.723 0 0 0 23 21c.688.832.521 1.498-.5 2a251.779 251.779 0 0 1-23-19.5c-11.74-.747-20.74-6.08-27-16 9.065 2.202 17.065 6.535 24 13 .832.688 1.498.521 2-.5-7.394-7.119-11.894-15.786-13.5-26a304.078 304.078 0 0 1-2-20c-9.6 6.6-17.268 4.933-23-5-1.48-8.872 1.353-16.039 8.5-21.5l11-7c3.222-2.956 5.556-6.456 7-10.5z"/><path style="opacity:1" fill="#f3f2f2" d="M84.5 140.5c3.802 1.279 6.969 3.612 9.5 7a122.733 122.733 0 0 1 9.5 16.5c-2.402.814-4.735.647-7-.5-2.716-8.435-6.716-16.102-12-23z"/><path style="opacity:1" fill="#391711" d="M82.5 143.5c.992-.172 1.658.162 2 1a462.834 462.834 0 0 0-1 43h-1v-44z"/></svg>
